X: 1236
T: Kavli de Kaddi Gibi
C: Ahmet Avni Konuk
O: Turkey
F: http://compmusic.upf.edu/node/140
N: rast--kupe--devrirevanihindi--kavli_de_kaddi--ahmet_avni_konuk
N: makam= rast
N: form= kupe
N: usul= devrirevanihindi = 14/8
M: 14/8
L: 1/16
K: C _1/4B ^f  
Q: 1/4=102
%%MIDI tuningsystem comma53
GFE2 F2G4A4A2 G2F2 E2FE D4  | EFE2 F2G4A2 B2A2 G2F2 G6z2  | 
w:  Kav *  *  li  de  *  kad  |  di  *  *  gi bi  *  *  Rast   | 
dcB2 c2d4d2 g2g2 =f2e2 d/c/d/e/dc B^AB2  | \
w:  ol *  *  sa  ger  *  *  ol   | 
BcB2 A2Bc BAe2 edd2 dccB B6z2  | 
w:  meh *  *  *  *  *  *  *  ve *  *  şin    | 
e2d2 e2ed cBA4AB A2B2 c2{e}dc BAG2  | \
w:  Hiç  *  bü kül *  *  *  *  mez  | 
AGF2 G2A4z4AB A2B2 c2Bc d4  | 
w:  di  *  *  be li  üf  | 
d4 g2g2 =f2e2 d2de d2c2 cBBA G2z2  | \
w:  tâ de  i  *  *  *  has  | 
A_BAB GFAc _1/4BAAG GFG2 F2AG G4 z4  | 
w:  ret *  *  *  *  *  *  *  *  *  ke *  *  *  şin    | 
|


